launcher/android/assets/skins/day/svg/mapMegaEvent1.svg

<svg enable-background="new 0 0 258.00 258.00" height="258" viewBox="0 0 258 258" width="258" xmlns="http://www.w3.org/2000/svg"><g stroke-linejoin="round"><path d="m129.454 43.5999c50.12 0 90.75 28.206 90.75 63.0001 0 14.918-7.469 28.625-19.953 39.417l-4.547 5.083-10 7-7 11.5-7 14-7.5 10.5-5-1-1.5-9-1.261-17.333c-8.525 1.841-17.59 2.833-26.989 2.833-50.1196 0-90.7498-28.206-90.7498-63 0-34.7941 40.6302-63.0001 90.7498-63.0001z" fill="#e4e4e1" stroke="#000" stroke-width="5"/><path d="m198.204 68.9978c-16.039-14.5169-41.487-23.8979-70.137-23.8979-48.5256 0-87.8629 26.9106-87.8629 60.1071 0 9.468 3.2003 18.425 8.9015 26.392l20.5425-10.844c-4.4337-5.454-6.9337-11.63-6.9337-18.173 0-22.13 28.609-40.0704 63.8996-40.0704 17.793 0 33.888 4.5604 45.474 11.919z" fill="#9bcbe0" stroke-width=".2"/><ellipse cx="128.204" cy="103.6" fill="#fff" rx="66" ry="41.9999" stroke-width=".2"/><g fill="#a9090b" stroke="#a9090b" stroke-width="2"><path d="m100.259 122.833h-9.599v-17.129c0-4.363-1.7498-6.5445-5.2494-6.5445-1.66 0-3.0131.6544-4.0596 1.9635-1.0467 1.309-1.5699 2.943-1.5699 4.903v16.807h-9.599v-17.309c0-4.243-1.7231-6.3645-5.1695-6.3645-1.7332 0-3.1181.6261-4.1546 1.8785-1.0366 1.252-1.5548 2.952-1.5548 5.102v16.693h-9.5991v-30.3506h9.5991v4.989h.1299c1.02-1.6567 2.4531-3.0034 4.2997-4.0405 1.8464-1.037 3.8629-1.5556 6.0493-1.5556 4.5328 0 7.6326 1.9255 9.2991 5.7763 2.4331-3.8508 6.0161-5.7763 10.7489-5.7763 6.9526 0 10.4289 4.0533 10.4289 12.1597z"/><path d="m136.735 110.086h-20.478c.334 4.451 3.237 6.677 8.71 6.677 3.493 0 6.562-.809 9.209-2.428v6.829c-2.927 1.517-6.726 2.276-11.399 2.276-5.106 0-9.069-1.347-11.889-4.04-2.82-2.694-4.23-6.45-4.23-11.268 0-5.001 1.514-8.9614 4.54-11.8793 3.026-2.9183 6.746-4.3774 11.159-4.3774 4.579 0 8.121 1.2885 10.624 3.8651 2.503 2.5767 3.754 6.0716 3.754 10.4856zm-8.959-5.463c0-4.047-1.823-6.0704-5.469-6.0704-1.553 0-2.898.5801-4.035 1.7404-1.136 1.16-1.828 2.603-2.075 4.33z"/><path d="m173.852 119.551c0 5.672-1.668 10.065-5.005 13.179-3.336 3.114-8.167 4.672-14.493 4.672-4.18 0-7.493-.551-9.939-1.651v-7.455c3.193 1.619 6.412 2.428 9.659 2.428 3.233 0 5.738-.89 7.514-2.669 1.776-1.78 2.665-4.201 2.665-7.261v-2.561h-.12c-2.22 3.471-5.493 5.207-9.819 5.207-4.013 0-7.2-1.351-9.559-4.054-2.36-2.704-3.54-6.328-3.54-10.875 0-5.096 1.311-9.1429 3.935-12.1399 2.623-2.9971 6.077-4.4958 10.364-4.4958 3.833 0 6.702 1.4609 8.609 4.382h.13v-3.7749h9.599zm-9.479-11.315v-2.333c0-1.865-.574-3.455-1.72-4.771-1.147-1.3148-2.637-1.9725-4.47-1.9725-2.093 0-3.738.7872-4.934 2.3615-1.197 1.575-1.795 3.794-1.795 6.659 0 2.453.568 4.396 1.705 5.828 1.136 1.432 2.691 2.148 4.664 2.148 1.953 0 3.533-.725 4.74-2.177 1.206-1.451 1.81-3.365 1.81-5.743z"/><path d="m209.688 122.833h-9.599v-4.524h-.13c-2.166 3.421-5.373 5.131-9.619 5.131-3.133 0-5.598-.83-7.394-2.489-1.797-1.66-2.695-3.875-2.695-6.645 0-5.848 3.71-9.225 11.129-10.129l8.769-1.091c0-3.022-1.91-4.5334-5.729-4.5334-3.847 0-7.503 1.0117-10.969 3.0354v-7.1327c1.393-.683 3.301-1.2836 5.724-1.8021 2.423-.5186 4.628-.7779 6.615-.7779 9.265 0 13.898 4.2998 13.898 12.8987zm-9.539-12.301v-1.983l-5.979.693c-3.307.379-4.96 1.71-4.96 3.993 0 1.03.402 1.876 1.205 2.537s1.892.991 3.265.991c1.913 0 3.469-.588 4.669-1.764s1.8-2.665 1.8-4.467z"/></g></g></svg>

﻿<?xml version="1.0" encoding="utf-8"?>
<!DOCTYPE svg PUBLIC "-//W3C//DTD SVG 1.1//EN" "http://www.w3.org/Graphics/SVG/1.1/DTD/svg11.dtd">
<svg xmlns="http://www.w3.org/2000/svg" xmlns:xlink="http://www.w3.org/1999/xlink" version="1.1" baseProfile="full" width="258" height="258" viewBox="0 0 258.00 258.00" enable-background="new 0 0 258.00 258.00" xml:space="preserve">
	<g>
		<path fill="#E4E4E1" fill-opacity="1" stroke-width="5" stroke-linejoin="round" stroke="#000000" stroke-opacity="1" d="M 129.454,43.5999C 179.574,43.5999 220.204,71.8059 220.204,106.6C 220.204,121.518 212.735,135.225 200.251,146.017L 195.704,151.1L 185.704,158.1L 178.704,169.6L 171.704,183.6L 164.204,194.1L 159.204,193.1L 157.704,184.1L 156.443,166.767C 147.918,168.608 138.853,169.6 129.454,169.6C 79.3344,169.6 38.7042,141.394 38.7042,106.6C 38.7042,71.8059 79.3344,43.5999 129.454,43.5999 Z "/>
		<path fill="#9BCBE0" fill-opacity="1" stroke-width="0.2" stroke-linejoin="round" d="M 198.204,68.9978C 182.165,54.4809 156.717,45.0999 128.067,45.0999C 79.5414,45.0999 40.2041,72.0105 40.2041,105.207C 40.2041,114.675 43.4044,123.632 49.1056,131.599L 69.6481,120.755C 65.2144,115.301 62.7144,109.125 62.7144,102.582C 62.7144,80.452 91.3234,62.5116 126.614,62.5116C 144.407,62.5116 160.502,67.072 172.088,74.4306L 198.204,68.9978 Z "/>
		<ellipse fill="#FFFFFF" fill-opacity="1" stroke-width="0.2" stroke-linejoin="round" cx="128.204" cy="103.6" rx="66" ry="41.9999"/>
		<g>
			<path fill="#A9090B" fill-opacity="1" stroke-width="2" stroke-linejoin="round" stroke="#A9090B" stroke-opacity="1" d="M 100.259,122.833L 90.66,122.833L 90.66,105.704C 90.66,101.341 88.9102,99.1595 85.4106,99.1595C 83.7506,99.1595 82.3975,99.8139 81.351,101.123C 80.3043,102.432 79.7811,104.066 79.7811,106.026L 79.7811,122.833L 70.1821,122.833L 70.1821,105.524C 70.1821,101.281 68.459,99.1595 65.0126,99.1595C 63.2794,99.1595 61.8945,99.7856 60.858,101.038C 59.8214,102.29 59.3032,103.99 59.3032,106.14L 59.3032,122.833L 49.7041,122.833L 49.7041,92.4824L 59.3032,92.4824L 59.3032,97.4714L 59.4331,97.4714C 60.4531,95.8147 61.8862,94.468 63.7328,93.4309C 65.5792,92.3939 67.5957,91.8753 69.7821,91.8753C 74.3149,91.8753 77.4147,93.8008 79.0812,97.6516C 81.5143,93.8008 85.0973,91.8753 89.8301,91.8753C 96.7827,91.8753 100.259,95.9286 100.259,104.035L 100.259,122.833 Z "/>
			<path fill="#A9090B" fill-opacity="1" stroke-width="2" stroke-linejoin="round" stroke="#A9090B" stroke-opacity="1" d="M 136.735,110.086L 116.257,110.086C 116.591,114.537 119.494,116.763 124.967,116.763C 128.46,116.763 131.529,115.954 134.176,114.335L 134.176,121.164C 131.249,122.681 127.45,123.44 122.777,123.44C 117.671,123.44 113.708,122.093 110.888,119.4C 108.068,116.706 106.658,112.95 106.658,108.132C 106.658,103.131 108.172,99.1706 111.198,96.2527C 114.224,93.3344 117.944,91.8753 122.357,91.8753C 126.936,91.8753 130.478,93.1638 132.981,95.7404C 135.484,98.3171 136.735,101.812 136.735,106.226L 136.735,110.086 Z M 127.776,104.623C 127.776,100.576 125.953,98.5526 122.307,98.5526C 120.754,98.5526 119.409,99.1327 118.272,100.293C 117.136,101.453 116.444,102.896 116.197,104.623L 127.776,104.623 Z "/>
			<path fill="#A9090B" fill-opacity="1" stroke-width="2" stroke-linejoin="round" stroke="#A9090B" stroke-opacity="1" d="M 173.852,119.551C 173.852,125.223 172.184,129.616 168.847,132.73C 165.511,135.844 160.68,137.402 154.354,137.402C 150.174,137.402 146.861,136.851 144.415,135.751L 144.415,128.296C 147.608,129.915 150.827,130.724 154.074,130.724C 157.307,130.724 159.812,129.834 161.588,128.055C 163.364,126.275 164.253,123.854 164.253,120.794L 164.253,118.233L 164.133,118.233C 161.913,121.704 158.64,123.44 154.314,123.44C 150.301,123.44 147.114,122.089 144.755,119.386C 142.395,116.682 141.215,113.058 141.215,108.511C 141.215,103.415 142.526,99.3681 145.15,96.3711C 147.773,93.374 151.227,91.8753 155.514,91.8753C 159.347,91.8753 162.216,93.3362 164.123,96.2573L 164.253,96.2573L 164.253,92.4824L 173.852,92.4824L 173.852,119.551 Z M 164.373,108.236L 164.373,105.903C 164.373,104.038 163.799,102.448 162.653,101.132C 161.506,99.8172 160.016,99.1595 158.183,99.1595C 156.09,99.1595 154.445,99.9467 153.249,101.521C 152.052,103.096 151.454,105.315 151.454,108.18C 151.454,110.633 152.022,112.576 153.159,114.008C 154.295,115.44 155.85,116.156 157.823,116.156C 159.776,116.156 161.356,115.431 162.563,113.979C 163.769,112.528 164.373,110.614 164.373,108.236 Z "/>
			<path fill="#A9090B" fill-opacity="1" stroke-width="2" stroke-linejoin="round" stroke="#A9090B" stroke-opacity="1" d="M 209.688,122.833L 200.089,122.833L 200.089,118.309L 199.959,118.309C 197.793,121.73 194.586,123.44 190.34,123.44C 187.207,123.44 184.742,122.61 182.946,120.951C 181.149,119.291 180.251,117.076 180.251,114.306C 180.251,108.458 183.961,105.081 191.38,104.177L 200.149,103.086C 200.149,100.064 198.239,98.5526 194.42,98.5526C 190.573,98.5526 186.917,99.5643 183.451,101.588L 183.451,94.4553C 184.844,93.7723 186.752,93.1717 189.175,92.6532C 191.598,92.1346 193.803,91.8753 195.79,91.8753C 205.055,91.8753 209.688,96.1751 209.688,104.774L 209.688,122.833 Z M 200.149,110.532L 200.149,108.549L 194.17,109.242C 190.863,109.621 189.21,110.952 189.21,113.235C 189.21,114.265 189.612,115.111 190.415,115.772C 191.218,116.433 192.307,116.763 193.68,116.763C 195.593,116.763 197.149,116.175 198.349,114.999C 199.549,113.823 200.149,112.334 200.149,110.532 Z "/>
		</g>
	</g>
</svg>
